X:1
T:Oogstkoekenkermis
C:Trad.
O:Vlaanderen
Z:Bart Vanhaverbeke <bvanhaverbeke@unicall.be>
P:(Voorspel ABCBC) x2
L:1/8
M:3/4
K:G
P:Voorspel
D2 | "G"G2 GB GB | "G"d2 d2 B2 | "D7" d2 e2 f2 | "G" g2 z2 |]
P:A
D2 | "G"G2 GB GB | "G"d2 d2 B2 | G2 GB cB | "D7"A4 D2 | F3 A FA | d3 A FA | d2 ^c2 =c2 | "G" B4 D2 |
"G"G2 GB GB | "G"d2 d2 B2 | G2 GB cB | "D7"A4 z2 | d3 ^c de | d3 ^c de | d2 =c2 A2 | "G" G4 :|]
P:B
D2 | "G" GB AG FG | "D7" cB AG FE | DE FG AG | cB A2 D2 |
"G" GB AG FG | "D7" cB AG FE | DE FG AG |1 "G"BA G2 D2 :|2 "G"BA G2 |]
P:C
z2 |"G" D4 G2 | B4 A2 | G2 B2 e2 | d4 d2 | D4 B2 | "D7"A4 B2 | c2 B2 A2 | "G"G4 G2 |
"G" D4 G2 | B4 A2 | G2 B2 e2 | d4 d2 | D4 B2 | H[d4B4] cB | "D7" A2 B2 A2 | "G" G4 |]
